Adwaita++/apps/16/com.github.alecaddd.sequeler.svg

<svg height="16" width="16" xmlns="http://www.w3.org/2000/svg">
  <g fill="#444">
    <path d="m5.5683595 3.9994504v1.6015625h1.6015626 1.5 1.4003909v-1.6015625h-1.4003909-1.5zm0 3.2011719v1.5996093h1.6015626 1.5 1.4003909v-1.5996093h-1.4003909-1.5zm0 3.1992187v1.599609h1.5.1015626 1.5 1.4003909v-1.599609h-1.4003909-1.5-.1015626z"/>
    <path d="m3.1132812.5a1.0000999 1.0000999 0 0 0 -.8125 1v13a1.0000999 1.0000999 0 0 0 1 1h4.5.0371094 4.5000004a1.0000999 1.0000999 0 0 0 1-1v-13a1.0000999 1.0000999 0 0 0 -.8125-1 1.0000999 1.0000999 0 0 0 -.09375 0 1.0000999 1.0000999 0 0 0 -.09375 0h-4.5000004-.0371094-4.5a1.0000999 1.0000999 0 0 0 -.09375 0 1.0000999 1.0000999 0 0 0 -.09375 0zm1.1875 2h3.5.0371094 3.5000004v11h-3.5000004-.0371094-3.5z"/>
  </g>
</svg>

<svg xmlns="http://www.w3.org/2000/svg" width="16" height="16" version="1.1">
 <path fill="#444" d="m 5.5683595,3.9994504 v 1.6015625 h 1.6015626 1.5 1.4003909 V 3.9994504 h -1.4003909 -1.5 z m 0,3.2011719 v 1.5996093 h 1.6015626 1.5 1.4003909 V 7.2006223 h -1.4003909 -1.5 z m 0,3.1992187 v 1.599609 h 1.5 0.1015626 1.5 1.4003909 v -1.599609 h -1.4003909 -1.5 -0.1015626 z"/>
 <path fill="#444" d="M 3.1132812 0.5 A 1.0000999 1.0000999 0 0 0 2.3007812 1.5 L 2.3007812 14.5 A 1.0000999 1.0000999 0 0 0 3.3007812 15.5 L 7.8007812 15.5 L 7.8378906 15.5 L 12.337891 15.5 A 1.0000999 1.0000999 0 0 0 13.337891 14.5 L 13.337891 1.5 A 1.0000999 1.0000999 0 0 0 12.525391 0.5 A 1.0000999 1.0000999 0 0 0 12.431641 0.5 A 1.0000999 1.0000999 0 0 0 12.337891 0.5 L 7.8378906 0.5 L 7.8007812 0.5 L 3.3007812 0.5 A 1.0000999 1.0000999 0 0 0 3.2070312 0.5 A 1.0000999 1.0000999 0 0 0 3.1132812 0.5 z M 4.3007812 2.5 L 7.8007812 2.5 L 7.8378906 2.5 L 11.337891 2.5 L 11.337891 13.5 L 7.8378906 13.5 L 7.8007812 13.5 L 4.3007812 13.5 L 4.3007812 2.5 z"/>
</svg>
